src/assets/tools/canva.svg

<svg width="100" height="100" viewBox="0 0 100 100" fill="none" xmlns="http://www.w3.org/2000/svg">
<path d="M50 99.9996C77.6142 99.9996 100 77.6139 100 49.9996C100 22.3854 77.6142 -0.000366211 50 -0.000366211C22.3858 -0.000366211 0 22.3854 0 49.9996C0 77.6139 22.3858 99.9996 50 99.9996Z" fill="#7D2AE7"/>
<path d="M50 99.9996C77.6142 99.9996 100 77.6139 100 49.9996C100 22.3854 77.6142 -0.000366211 50 -0.000366211C22.3858 -0.000366211 0 22.3854 0 49.9996C0 77.6139 22.3858 99.9996 50 99.9996Z" fill="url(#paint0_radial_751_8029)"/>
<path d="M50 99.9996C77.6142 99.9996 100 77.6139 100 49.9996C100 22.3854 77.6142 -0.000366211 50 -0.000366211C22.3858 -0.000366211 0 22.3854 0 49.9996C0 77.6139 22.3858 99.9996 50 99.9996Z" fill="url(#paint1_radial_751_8029)"/>
<path d="M50 99.9996C77.6142 99.9996 100 77.6139 100 49.9996C100 22.3854 77.6142 -0.000366211 50 -0.000366211C22.3858 -0.000366211 0 22.3854 0 49.9996C0 77.6139 22.3858 99.9996 50 99.9996Z" fill="url(#paint2_radial_751_8029)"/>
<path d="M50 99.9996C77.6142 99.9996 100 77.6139 100 49.9996C100 22.3854 77.6142 -0.000366211 50 -0.000366211C22.3858 -0.000366211 0 22.3854 0 49.9996C0 77.6139 22.3858 99.9996 50 99.9996Z" fill="url(#paint3_radial_751_8029)"/>
<path d="M71.5863 60.2564C71.1736 60.2564 70.8105 60.6048 70.4326 61.3659C66.1652 70.019 58.7947 76.1417 50.2655 76.1417C40.4034 76.1417 34.2961 67.239 34.2961 54.9401C34.2961 34.1067 45.9039 22.0613 56.0994 22.0613C60.8636 22.0613 63.7731 25.0553 63.7731 29.8197C63.7731 35.4744 60.5605 38.4684 60.5605 40.4627C60.5605 41.3579 61.1173 41.8999 62.2215 41.8999C66.6578 41.8999 71.8647 36.8023 71.8647 29.6009C71.8647 22.6183 65.7873 17.4858 55.5921 17.4858C38.7423 17.4858 23.7676 33.1071 23.7676 54.7212C23.7676 71.4517 33.3214 82.5075 48.0624 82.5075C63.7084 82.5075 72.7552 66.9406 72.7552 61.888C72.7552 60.769 72.1831 60.2564 71.5863 60.2564Z" fill="white"/>
<defs>
<radialGradient id="paint0_radial_751_8029" cx="0" cy="0" r="1" gradientUnits="userSpaceOnUse" gradientTransform="translate(19.3162 88.6318) rotate(-49.416) scale(77.3416)">
<stop stop-color="#6420FF"/>
<stop offset="1" stop-color="#6420FF" stop-opacity="0"/>
</radialGradient>
<radialGradient id="paint1_radial_751_8029" cx="0" cy="0" r="1" gradientUnits="userSpaceOnUse" gradientTransform="translate(26.4735 11.3678) rotate(54.703) scale(87.2168)">
<stop stop-color="#00C4CC"/>
<stop offset="1" stop-color="#00C4CC" stop-opacity="0"/>
</radialGradient>
<radialGradient id="paint2_radial_751_8029" cx="0" cy="0" r="1" gradientUnits="userSpaceOnUse" gradientTransform="translate(19.3158 88.6312) rotate(-45.1954) scale(76.4053 35.1398)">
<stop stop-color="#6420FF"/>
<stop offset="1" stop-color="#6420FF" stop-opacity="0"/>
</radialGradient>
<radialGradient id="paint3_radial_751_8029" cx="0" cy="0" r="1" gradientUnits="userSpaceOnUse" gradientTransform="translate(40.8947 13.4733) rotate(66.5198) scale(78.7295 131.889)">
<stop stop-color="#00C4CC" stop-opacity="0.725916"/>
<stop offset="0.0001" stop-color="#00C4CC"/>
<stop offset="1" stop-color="#00C4CC" stop-opacity="0"/>
</radialGradient>
</defs>
</svg>

<svg xmlns="http://www.w3.org/2000/svg" width="100" height="100" fill="none"><path fill="#7D2AE7" d="M50 100c27.614 0 50-22.386 50-50 0-27.615-22.386-50-50-50S0 22.385 0 50c0 27.614 22.386 50 50 50Z"/><path fill="url(#a)" d="M50 100c27.614 0 50-22.386 50-50 0-27.615-22.386-50-50-50S0 22.385 0 50c0 27.614 22.386 50 50 50Z"/><path fill="url(#b)" d="M50 100c27.614 0 50-22.386 50-50 0-27.615-22.386-50-50-50S0 22.385 0 50c0 27.614 22.386 50 50 50Z"/><path fill="url(#c)" d="M50 100c27.614 0 50-22.386 50-50 0-27.615-22.386-50-50-50S0 22.385 0 50c0 27.614 22.386 50 50 50Z"/><path fill="url(#d)" d="M50 100c27.614 0 50-22.386 50-50 0-27.615-22.386-50-50-50S0 22.385 0 50c0 27.614 22.386 50 50 50Z"/><path fill="#fff" d="M71.586 60.256c-.412 0-.775.349-1.153 1.11-4.268 8.653-11.638 14.776-20.168 14.776-9.862 0-15.969-8.903-15.969-21.202 0-20.833 11.608-32.879 21.803-32.879 4.765 0 7.674 2.994 7.674 7.759 0 5.654-3.213 8.648-3.213 10.643 0 .895.557 1.437 1.661 1.437 4.437 0 9.644-5.098 9.644-12.3 0-6.982-6.078-12.114-16.273-12.114-16.85 0-31.824 15.621-31.824 37.235 0 16.73 9.553 27.786 24.294 27.786 15.646 0 24.693-15.566 24.693-20.619 0-1.119-.572-1.632-1.169-1.632Z"/><defs><radialGradient id="a" cx="0" cy="0" r="1" gradientTransform="rotate(-49.416 105.972 23.325) scale(77.3416)" gradientUnits="userSpaceOnUse"><stop stop-color="#6420FF"/><stop offset="1" stop-color="#6420FF" stop-opacity="0"/></radialGradient><radialGradient id="b" cx="0" cy="0" r="1" gradientTransform="rotate(54.703 2.249 31.273) scale(87.2168)" gradientUnits="userSpaceOnUse"><stop stop-color="#00C4CC"/><stop offset="1" stop-color="#00C4CC" stop-opacity="0"/></radialGradient><radialGradient id="c" cx="0" cy="0" r="1" gradientTransform="rotate(-45.195 116.131 21.111) scale(76.4053 35.1398)" gradientUnits="userSpaceOnUse"><stop stop-color="#6420FF"/><stop offset="1" stop-color="#6420FF" stop-opacity="0"/></radialGradient><radialGradient id="d" cx="0" cy="0" r="1" gradientTransform="rotate(66.52 10.176 37.912) scale(78.7295 131.889)" gradientUnits="userSpaceOnUse"><stop stop-color="#00C4CC" stop-opacity=".726"/><stop offset="0" stop-color="#00C4CC"/><stop offset="1" stop-color="#00C4CC" stop-opacity="0"/></radialGradient></defs></svg>
